build/images/base.svg

<svg viewBox="0 0 16 16" fill="none" xmlns="http://www.w3.org/2000/svg">
<mask id="path-1-inside-1" fill="white">
<path d="M15.75 1.52148H12.7392C12.6011 1.52148 12.4892 1.63331 12.4892 1.77148V4.89843H9.63133C9.49315 4.89843 9.38133 5.01026 9.38133 5.14843V7.72413H6.4624C6.3242 7.72413 6.2124 7.83593 6.2124 7.97413V10.9539H3.41527C3.2771 10.9539 3.16527 11.0657 3.16527 11.2039V13.9785H0.25C0.1118 13.9785 0 14.0903 0 14.2285C0 14.3667 0.1118 14.4785 0.25 14.4785H3.41527C3.55345 14.4785 3.66527 14.3667 3.66527 14.2285V11.4539H6.4624C6.60058 11.4539 6.7124 11.3421 6.7124 11.2039V8.22413H9.63133C9.76952 8.22413 9.88133 8.11231 9.88133 7.97413V5.39843H12.7392C12.8774 5.39843 12.9892 5.28663 12.9892 5.14843V2.02148H15.75C15.8882 2.02148 16 1.90968 16 1.77148C16 1.63331 15.8882 1.52148 15.75 1.52148Z"/>
</mask>
<path d="M15.75 1.52148H12.7392C12.6011 1.52148 12.4892 1.63331 12.4892 1.77148V4.89843H9.63133C9.49315 4.89843 9.38133 5.01026 9.38133 5.14843V7.72413H6.4624C6.3242 7.72413 6.2124 7.83593 6.2124 7.97413V10.9539H3.41527C3.2771 10.9539 3.16527 11.0657 3.16527 11.2039V13.9785H0.25C0.1118 13.9785 0 14.0903 0 14.2285C0 14.3667 0.1118 14.4785 0.25 14.4785H3.41527C3.55345 14.4785 3.66527 14.3667 3.66527 14.2285V11.4539H6.4624C6.60058 11.4539 6.7124 11.3421 6.7124 11.2039V8.22413H9.63133C9.76952 8.22413 9.88133 8.11231 9.88133 7.97413V5.39843H12.7392C12.8774 5.39843 12.9892 5.28663 12.9892 5.14843V2.02148H15.75C15.8882 2.02148 16 1.90968 16 1.77148C16 1.63331 15.8882 1.52148 15.75 1.52148Z" fill="#F43838"/>
<path d="M12.4892 4.89843V5.89843H13.4892V4.89843H12.4892ZM9.38133 7.72413V8.72413H10.3813V7.72413H9.38133ZM6.2124 10.9539V11.9539H7.2124V10.9539H6.2124ZM3.16527 13.9785V14.9785H4.16527V13.9785H3.16527ZM3.66527 11.4539V10.4539H2.66527V11.4539H3.66527ZM6.7124 8.22413V7.22413H5.7124V8.22413H6.7124ZM9.88133 5.39843V4.39843H8.88133V5.39843H9.88133ZM12.9892 2.02148V1.02148H11.9892V2.02148H12.9892ZM15.75 0.521484H12.7392V2.52148H15.75V0.521484ZM12.7392 0.521484C12.0488 0.521484 11.4892 1.08102 11.4892 1.77148H13.4892C13.4892 2.1856 13.1534 2.52148 12.7392 2.52148V0.521484ZM11.4892 1.77148V4.89843H13.4892V1.77148H11.4892ZM12.4892 3.89843H9.63133V5.89843H12.4892V3.89843ZM9.63133 3.89843C8.94086 3.89843 8.38133 4.45798 8.38133 5.14843H10.3813C10.3813 5.56254 10.0454 5.89843 9.63133 5.89843V3.89843ZM8.38133 5.14843V7.72413H10.3813V5.14843H8.38133ZM9.38133 6.72413H6.4624V8.72413H9.38133V6.72413ZM6.4624 6.72413C5.77191 6.72413 5.2124 7.28365 5.2124 7.97413H7.2124C7.2124 8.38822 6.87648 8.72413 6.4624 8.72413V6.72413ZM5.2124 7.97413V10.9539H7.2124V7.97413H5.2124ZM6.2124 9.95386H3.41527V11.9539H6.2124V9.95386ZM3.41527 9.95386C2.72481 9.95386 2.16527 10.5134 2.16527 11.2039H4.16527C4.16527 11.618 3.82938 11.9539 3.41527 11.9539V9.95386ZM2.16527 11.2039V13.9785H4.16527V11.2039H2.16527ZM3.16527 12.9785H0.25V14.9785H3.16527V12.9785ZM0.25 12.9785C-0.440485 12.9785 -1 13.5381 -1 14.2285H1C1 14.6426 0.664085 14.9785 0.25 14.9785V12.9785ZM-1 14.2285C-1 14.9189 -0.44055 15.4785 0.25 15.4785V13.4785C0.66415 13.4785 1 13.8145 1 14.2285H-1ZM0.25 15.4785H3.41527V13.4785H0.25V15.4785ZM3.41527 15.4785C4.10573 15.4785 4.66527 14.919 4.66527 14.2285H2.66527C2.66527 13.8144 3.00116 13.4785 3.41527 13.4785V15.4785ZM4.66527 14.2285V11.4539H2.66527V14.2285H4.66527ZM3.66527 12.4539H6.4624V10.4539H3.66527V12.4539ZM6.4624 12.4539C7.1528 12.4539 7.7124 11.8944 7.7124 11.2039H5.7124C5.7124 10.7897 6.04835 10.4539 6.4624 10.4539V12.4539ZM7.7124 11.2039V8.22413H5.7124V11.2039H7.7124ZM6.7124 9.22413H9.63133V7.22413H6.7124V9.22413ZM9.63133 9.22413C10.3219 9.22413 10.8813 8.66454 10.8813 7.97413H8.88133C8.88133 7.56008 9.21718 7.22413 9.63133 7.22413V9.22413ZM10.8813 7.97413V5.39843H8.88133V7.97413H10.8813ZM9.88133 6.39843H12.7392V4.39843H9.88133V6.39843ZM12.7392 6.39843C13.4296 6.39843 13.9892 5.83898 13.9892 5.14843H11.9892C11.9892 4.73429 12.3252 4.39843 12.7392 4.39843V6.39843ZM13.9892 5.14843V2.02148H11.9892V5.14843H13.9892ZM12.9892 3.02148H15.75V1.02148H12.9892V3.02148ZM15.75 3.02148C16.4404 3.02148 17 2.46203 17 1.77148H15C15 1.35734 15.336 1.02148 15.75 1.02148V3.02148ZM17 1.77148C17 1.08102 16.4405 0.521484 15.75 0.521484V2.52148C15.3359 2.52148 15 2.18559 15 1.77148H17Z" fill="#F43838" mask="url(#path-1-inside-1)"/>
<mask id="path-3-inside-2" fill="white">
<path d="M2.08459 6.11924H4.90517C5.04334 6.11924 5.15517 6.00741 5.15517 5.86924C5.15517 5.73106 5.04334 5.61924 4.90517 5.61924H2.66584L6.26087 2.04649C6.35877 1.94906 6.35927 1.79086 6.26184 1.69296C6.16444 1.59506 6.00624 1.59434 5.90834 1.69199L2.33459 5.24356V3.08701C2.33459 2.94884 2.22279 2.83701 2.08459 2.83701C1.94642 2.83701 1.83459 2.94884 1.83459 3.08701V5.86924C1.83459 6.00741 1.94642 6.11924 2.08459 6.11924Z"/>
</mask>
<path d="M2.08459 6.11924H4.90517C5.04334 6.11924 5.15517 6.00741 5.15517 5.86924C5.15517 5.73106 5.04334 5.61924 4.90517 5.61924H2.66584L6.26087 2.04649C6.35877 1.94906 6.35927 1.79086 6.26184 1.69296C6.16444 1.59506 6.00624 1.59434 5.90834 1.69199L2.33459 5.24356V3.08701C2.33459 2.94884 2.22279 2.83701 2.08459 2.83701C1.94642 2.83701 1.83459 2.94884 1.83459 3.08701V5.86924C1.83459 6.00741 1.94642 6.11924 2.08459 6.11924Z" fill="#F43838"/>
<path d="M2.66584 5.61924L1.96094 4.90993L0.240981 6.61924H2.66584V5.61924ZM6.26087 2.04649L6.96578 2.75579L6.96625 2.75531L6.26087 2.04649ZM6.26184 1.69296L5.55293 2.39826L5.55302 2.39835L6.26184 1.69296ZM5.90834 1.69199L6.61325 2.40129L6.61455 2.4L5.90834 1.69199ZM2.33459 5.24356H1.33459V7.64719L3.0395 5.95286L2.33459 5.24356ZM2.08459 7.11924H4.90517V5.11923H2.08459V7.11924ZM4.90517 7.11924C5.59563 7.11924 6.15517 6.55969 6.15517 5.86924H4.15517C4.15517 5.45512 4.49106 5.11923 4.90517 5.11923V7.11924ZM6.15517 5.86924C6.15517 5.17878 5.59563 4.61924 4.90517 4.61924V6.61924C4.49106 6.61924 4.15517 6.28335 4.15517 5.86924H6.15517ZM4.90517 4.61924H2.66584V6.61924H4.90517V4.61924ZM3.37075 6.32854L6.96578 2.75579L5.55596 1.33718L1.96094 4.90993L3.37075 6.32854ZM6.96625 2.75531C7.45502 2.26891 7.45827 1.47755 6.97067 0.987576L5.55302 2.39835C5.26027 2.10417 5.26251 1.62921 5.55548 1.33766L6.96625 2.75531ZM6.97076 0.987665C6.48535 0.499768 5.69329 0.494079 5.20214 0.983975L6.61455 2.4C6.3192 2.69459 5.84354 2.69035 5.55293 2.39826L6.97076 0.987665ZM5.20344 0.982682L1.62969 4.53426L3.0395 5.95286L6.61325 2.40129L5.20344 0.982682ZM3.33459 5.24356V3.08701H1.33459V5.24356H3.33459ZM3.33459 3.08701C3.33459 2.39662 2.77514 1.83701 2.08459 1.83701V3.83701C1.67045 3.83701 1.33459 3.50106 1.33459 3.08701H3.33459ZM2.08459 1.83701C1.39414 1.83701 0.834595 2.39655 0.834595 3.08701H2.83459C2.83459 3.50112 2.4987 3.83701 2.08459 3.83701V1.83701ZM0.834595 3.08701V5.86924H2.83459V3.08701H0.834595ZM0.834595 5.86924C0.834595 6.5597 1.39414 7.11924 2.08459 7.11924V5.11923C2.4987 5.11923 2.83459 5.45512 2.83459 5.86924H0.834595Z" fill="#F43838" mask="url(#path-3-inside-2)"/>
</svg>

<svg viewBox="0 0 16 16" fill="none" xmlns="http://www.w3.org/2000/svg"><mask id="a" fill="#fff"><path d="M15.75 1.521h-3.01a.25.25 0 00-.25.25v3.127H9.63a.25.25 0 00-.25.25v2.576H6.462a.25.25 0 00-.25.25v2.98H3.415a.25.25 0 00-.25.25v2.774H.25a.25.25 0 100 .5h3.165a.25.25 0 00.25-.25v-2.774h2.797a.25.25 0 00.25-.25v-2.98h2.92a.25.25 0 00.25-.25V5.398h2.857a.25.25 0 00.25-.25V2.021h2.761a.25.25 0 100-.5z"/></mask><path d="M15.75 1.521h-3.01a.25.25 0 00-.25.25v3.127H9.63a.25.25 0 00-.25.25v2.576H6.462a.25.25 0 00-.25.25v2.98H3.415a.25.25 0 00-.25.25v2.774H.25a.25.25 0 100 .5h3.165a.25.25 0 00.25-.25v-2.774h2.797a.25.25 0 00.25-.25v-2.98h2.92a.25.25 0 00.25-.25V5.398h2.857a.25.25 0 00.25-.25V2.021h2.761a.25.25 0 100-.5z" fill="#F43838"/><path d="M12.49 4.898v1h1v-1h-1zM9.38 7.724v1h1v-1h-1zm-3.169 3.23v1h1v-1h-1zm-3.047 3.024v1h1v-1h-1zm.5-2.524v-1h-1v1h1zm3.047-3.23v-1h-1v1h1zm3.17-2.826v-1h-1v1h1zm3.107-3.377v-1h-1v1h1zm2.761-1.5h-3.01v2h3.01v-2zm-3.01 0c-.691 0-1.25.56-1.25 1.25h2a.75.75 0 01-.75.75v-2zm-1.25 1.25v3.127h2V1.771h-2zm1 2.127H9.63v2h2.858v-2zm-2.859 0c-.69 0-1.25.56-1.25 1.25h2a.75.75 0 01-.75.75v-2zm-1.25 1.25v2.576h2V5.148h-2zm1 1.576H6.462v2h2.92v-2zm-2.919 0c-.69 0-1.25.56-1.25 1.25h2a.75.75 0 01-.75.75v-2zm-1.25 1.25v2.98h2v-2.98h-2zm1 1.98H3.415v2h2.797v-2zm-2.797 0c-.69 0-1.25.56-1.25 1.25h2a.75.75 0 01-.75.75v-2zm-1.25 1.25v2.774h2v-2.774h-2zm1 1.774H.25v2h2.915v-2zm-2.915 0c-.69 0-1.25.56-1.25 1.25h2a.75.75 0 01-.75.75v-2zM-1 14.229c0 .69.56 1.25 1.25 1.25v-2a.75.75 0 01.75.75h-2zm1.25 1.25h3.165v-2H.25v2zm3.165 0c.69 0 1.25-.559 1.25-1.25h-2a.75.75 0 01.75-.75v2zm1.25-1.25v-2.774h-2v2.774h2zm-1-1.774h2.797v-2H3.665v2zm2.797 0c.69 0 1.25-.56 1.25-1.25h-2a.75.75 0 01.75-.75v2zm1.25-1.25v-2.98h-2v2.98h2zm-1-1.98h2.92v-2h-2.92v2zm2.92 0c.69 0 1.25-.56 1.25-1.25h-2a.75.75 0 01.75-.75v2zm1.25-1.25V5.398h-2v2.576h2zm-1-1.576h2.857v-2H9.881v2zm2.857 0c.69 0 1.25-.559 1.25-1.25h-2a.75.75 0 01.75-.75v2zm1.25-1.25V2.021h-2v3.127h2zm-1-2.127h2.761v-2h-2.76v2zm2.761 0c.69 0 1.25-.559 1.25-1.25h-2a.75.75 0 01.75-.75v2zM17 1.771c0-.69-.56-1.25-1.25-1.25v2a.75.75 0 01-.75-.75h2z" fill="#F43838" mask="url(#a)"/><mask id="b" fill="#fff"><path d="M2.085 6.12h2.82a.25.25 0 100-.5h-2.24l3.596-3.574a.25.25 0 10-.353-.354L2.335 5.244V3.087a.25.25 0 10-.5 0v2.782c0 .138.111.25.25.25z"/></mask><path d="M2.085 6.12h2.82a.25.25 0 100-.5h-2.24l3.596-3.574a.25.25 0 10-.353-.354L2.335 5.244V3.087a.25.25 0 10-.5 0v2.782c0 .138.111.25.25.25z" fill="#F43838"/><path d="M2.666 5.62l-.705-.71L.24 6.62h2.425v-1zM6.26 2.045l.705.71-.705-.71zm0-.353l-.708.705.709-.705zm-.353-.001l.705.71.002-.002-.707-.708zM2.335 5.244h-1v2.403l1.704-1.694-.704-.71zm-.25 1.875h2.82v-2h-2.82v2zm2.82 0c.69 0 1.25-.56 1.25-1.25h-2a.75.75 0 01.75-.75v2zm1.25-1.25c0-.69-.56-1.25-1.25-1.25v2a.75.75 0 01-.75-.75h2zm-1.25-1.25h-2.24v2h2.24v-2zM3.371 6.33l3.595-3.573-1.41-1.419L1.961 4.91l1.41 1.419zm3.595-3.574A1.25 1.25 0 006.971.988l-1.418 1.41a.75.75 0 01.002-1.06l1.411 1.417zM6.971.988A1.25 1.25 0 005.202.984L6.615 2.4a.75.75 0 01-1.062-.002L6.97.988zM5.203.983L1.63 4.534l1.41 1.419L6.612 2.4 5.203.983zm-1.868 4.26V3.088h-2v2.157h2zm0-2.156c0-.69-.56-1.25-1.25-1.25v2a.75.75 0 01-.75-.75h2zm-1.25-1.25c-.69 0-1.25.56-1.25 1.25h2a.75.75 0 01-.75.75v-2zm-1.25 1.25v2.782h2V3.087h-2zm0 2.782c0 .69.56 1.25 1.25 1.25v-2a.75.75 0 01.75.75h-2z" fill="#F43838" mask="url(#b)"/></svg>
